!!!COM: Schubert, Franz
!!!CDT: 1797/01/31/-1828/11/19/
!!!CNT: Austrian
!!!OTL@@DE: Variationen &uuml;ber ein Thema von Anselm H&uuml;ttenbrenner
!!!OTL@EN: 13 Variations on a Theme by Anselm H&uuml;ttenbrenner
!!!OKY: A Minor
!!!SCT: D 576
!!!PDT: 1867///
!!!ODT: 1817/08//
!!!YEC: Copyright 2001 by Craig Stuart Sapp
!!!YEN: United States of America
!!!OMD: Var. 6
**kern	**kern
*clefF4	*clefG2
*k[f#c#g#]	*k[f#c#g#]
*f#:	*f#:
*M2/4	*M2/4
*MM72	*MM72
*>[A,A,B,B1,B,B2]	*>[A,A,B,B1,B,B2]
*>A	*>A
4F#	4A 4c#
.	16eq
8E#	8G# 8d
8F#	8A 8c#
=101	=101
4C#	4F 4G# 4c#
*^	*
8BB	4E#	4G# 4c# 4g#
8C#	.	.
=102	=102	=102
*	*	*^
8AA	8F#	8A 8c#	4a
8C#	4A^	[8e#	.
8D	.	8e#]	8g#
8F#	8d	8f#	8f#
*v	*v	*	*
*	*v	*v
=103	=103
2E 2G#	4.B
.	16.f#
.	32e
=104	=104
4E	4G# 4e
8E 8F#	8A 8d#
8E 8G#	8B 8dn
=105	=105
4F 4G#	4B 4c#
*	*^
8.F#	4A 4c#	8f#
.	.	16g#
16AA	.	16a
*	*v	*v
=106	=106
4C#	4A 4c# 4f# 4a
4CC# 4C#	4B 4c# 4e# 4g#
=107	=107
*^	*^
2FF#	2A	8c#	2f#
.	.	8d	.
.	.	8c#	.
.	.	8B#	.
*v	*v	*	*
*	*v	*v
=108:|!|:	=108:|!|:
*>B	*>B
*A:	*A:
*^	*^
4AA	4AA	4A 4c#	8e
.	.	.	8a
*	*	*v	*v
8AA	8BB	8A 8d 8g#
8AA	8C#	8A 8e 8gn
=109	=109	=109
*	*	*^
8AA	8.D	4A 4f#	4e
16BB	.	.	.
16C#	16C#	.	.
*v	*v	*	*
8D	8r	8d
8Cn	8A# 8e 8f#	8e
=110	=110	=110
*^	*	*
4BB	4BB	4B 4d#	8f#
.	.	.	8b
*	*	*v	*v
8BB	8C#	8B 8e 8a#
8BB	8E-	8B 8f# 8an
=111	=111	=111
*	*	*^
8BB	8.E	4B 4g#	4f#
16C#	.	.	.
16D#	16D#	.	.
*v	*v	*	*
8E	8r	8e
8E	8B 8g#	8dn
=112	=112	=112
4E#	2c#	8g#
.	.	8cc#
8F#	.	8b
*^	*	*
8Gn	8A	.	8a
=113	=113	=113	=113
4F#	8A	4a	8a
.	8d	.	8ff#
4Fn	8c#	4a	8ee
.	8b#	.	8ee-
=114	=114	=114	=114
4E	8c#	4a	8ee
.	8cn	.	8aa
4E	8B	4a	8b
.	8d	.	16ffn
.	.	.	16e
*v	*v	*	*
*	*v	*v
=115	=115
*>B1	*>B1
8AA	2c# 2a
8BB	.
8AA	.
8GG#	.
=116:|!	=116:|!
*>B2	*>B2
2AA 2A	2c# 2a
=|!	=|!
*-	*-
